X:21
T:Athole Lads
R:Reel
B:The Athole Collection
M:C|
L:1/8
K:A
e/d/|c2 (ef ecAd|c2 (ef ecBd|c2 (ef ecce|fddf ecAd|c2 (ef ecAd|
c2 (ef ecBd|c2 (ef efae|faef ecBd|: cA A/A/A ecAd|cA A/A/A ecBd|1
cA A/A/A ecce|fddf ecAd:|2 cA A/A/A efae|faef ecBd||

